assets/icons/qvision/edit_off.svg

<svg width="24" height="24" viewBox="0 0 24 24" fill="none" xmlns="http://www.w3.org/2000/svg">
<g clip-path="url(#clip0_147_4130)">
<path d="M12.126 8.125L14.063 6.188L17.81 9.935L15.873 11.873L12.126 8.125ZM20.71 5.63L18.37 3.29C18.1826 3.10375 17.9292 2.99921 17.665 2.99921C17.4008 2.99921 17.1474 3.10375 16.96 3.29L15.13 5.12L18.88 8.87L20.71 7C20.8844 6.81454 20.9815 6.56956 20.9815 6.315C20.9815 6.06044 20.8844 5.81546 20.71 5.63ZM2 5L8.63 11.63L3 17.25V21H6.75L12.38 15.38L18 21L20 19L4 3L2 5Z" fill="#323232"/>
</g>
<defs>
<clipPath id="clip0_147_4130">
<rect width="24" height="24" fill="white"/>
</clipPath>
</defs>
</svg>

<svg xmlns="http://www.w3.org/2000/svg" height="24" viewBox="0 0 24 24" width="24"><title>ic_edit_off_24px</title><path d="M0 0h24v24H0zm0 0h24v24H0z" fill="none"/><path d="M12.126 8.125l1.937-1.937 3.747 3.747-1.937 1.938zM20.71 5.63l-2.34-2.34a1 1 0 0 0-1.41 0l-1.83 1.83 3.75 3.75L20.71 7a1 1 0 0 0 0-1.37zM2 5l6.63 6.63L3 17.25V21h3.75l5.63-5.62L18 21l2-2L4 3 2 5z"/></svg>
